webroot/assets/sticky-banner/sticky-banner-breakpoints-mobile-portrait.svg

<svg xmlns="http://www.w3.org/2000/svg" width="372" height="643"><defs><filter id="a" width="372" height="162" x="0" y="481" filterUnits="userSpaceOnUse"><feOffset dy="-3"/><feGaussianBlur stdDeviation="2" result="b"/><feFlood flood-opacity=".102"/><feComposite operator="in" in2="b"/><feComposite in="SourceGraphic"/></filter></defs><path fill="#fff" d="M0 0h360v150H0z" transform="translate(6 490)" filter="url(#a)"/><path fill="none" d="M336 506h14v14h-14z"/><path fill="#6a6e73" d="M344.9 513l2.84-2.84a.9.9 0 0 0 0-1.27l-.63-.64a.9.9 0 0 0-1.25 0L343 511.1l-2.84-2.84a.9.9 0 0 0-1.27 0l-.64.63a.9.9 0 0 0 0 1.26l2.84 2.84-2.84 2.84a.9.9 0 0 0 0 1.27l.63.64a.9.9 0 0 0 1.26 0l2.84-2.84 2.84 2.84a.9.9 0 0 0 1.27 0l.64-.63a.9.9 0 0 0 0-1.25z"/><g fill="#06c"><path d="M114 606l-1.5 1.5 4.5 4.5h-10v2h10l-4.5 4.5 1.5 1.5 7-7z"/><text transform="translate(22 619)" font-size="18" font-family="RedHatDisplay-Bold, Red Hat Display" font-weight="700"><tspan x="0" y="0">Show me</tspan></text></g><g fill="#151515"><text transform="translate(22 540)" font-size="16" font-family="RedHatText-Regular, Red Hat Text"><tspan x="0" y="16">Learn about hybrid cloud and how to get</tspan><tspan x="0" y="40">started.</tspan></text><text transform="translate(22 526)" font-size="20" font-family="RedHatDisplay-Medium, Red Hat Display" font-weight="500"><tspan x="0" y="0">Interested in cloud?</tspan></text></g><g opacity=".03"><path fill="#00f" d="M350 0h16v640h-16z" opacity=".75"/><path fill="#f00" d="M22 0h328v640H22z" opacity=".75"/><path fill="#00f" d="M6 0h16v640H6z" opacity=".75"/></g></svg>

<svg xmlns="http://www.w3.org/2000/svg" xmlns:xlink="http://www.w3.org/1999/xlink" width="372" height="643" viewBox="0 0 372 643"><defs><style>.a{isolation:isolate;}.b{fill:#fff;}.c{fill:none;}.d{fill:#6a6e73;}.e,.f{fill:#06c;}.f{font-size:18px;font-family:RedHatDisplay-Bold, Red Hat Display;font-weight:700;}.g,.h{fill:#151515;}.g{font-size:16px;font-family:RedHatText-Regular, Red Hat Text;}.h{font-size:20px;font-family:RedHatDisplay-Medium, Red Hat Display;font-weight:500;}.i{opacity:0.03;}.j{fill:blue;}.j,.k{opacity:0.75;}.k{fill:red;}.l{filter:url(#a);}</style><filter id="a" x="0" y="481" width="372" height="162" filterUnits="userSpaceOnUse"><feOffset dy="-3" input="SourceAlpha"/><feGaussianBlur stdDeviation="2" result="b"/><feFlood flood-opacity="0.102"/><feComposite operator="in" in2="b"/><feComposite in="SourceGraphic"/></filter></defs><g class="a"><g class="l" transform="matrix(1, 0, 0, 1, 0, 0)"><path class="b" d="M0,0H360V150H0Z" transform="translate(6 490)"/></g><path class="c" d="M336,506h14v14H336Z"/><path class="d" d="M344.9,513l2.84-2.84a.9.9,0,0,0,0-1.27l-.63-.64a.9.9,0,0,0-1.25,0L343,511.1l-2.84-2.84a.9.9,0,0,0-1.27,0l-.64.63a.9.9,0,0,0,0,1.26l2.84,2.84-2.84,2.84a.9.9,0,0,0,0,1.27l.63.64a.9.9,0,0,0,1.26,0l2.84-2.84,2.84,2.84a.9.9,0,0,0,1.27,0l.64-.63a.9.9,0,0,0,0-1.25Z"/><path class="e" d="M114,606l-1.5,1.5L117,612H107v2h10l-4.5,4.5L114,620l7-7Z"/><text class="f" transform="translate(22 619)"><tspan x="0" y="0">Show me</tspan></text><text class="g" transform="translate(22 556)"><tspan x="0" y="0">Learn about hybrid cloud and how to get</tspan><tspan x="0" y="24">started.</tspan></text><text class="h" transform="translate(22 526)"><tspan x="0" y="0">Interested in cloud?</tspan></text><g class="i"><path class="j" d="M350,0h16V640H350Z"/><path class="k" d="M22,0H350V640H22Z"/><path class="j" d="M6,0H22V640H6Z"/></g></g></svg>
